X:451
T: Laát uns frhlich singen (5-47), S. 78
N: P0721
O: Lothringen
S: MERKELBACH-PINCK, Angelika: Verklingende Weisen, Bd 5, Kassel 1962]
R: geistliches, religiöses Lied]
M: 3/4
L: 1/8
K: G
D2 | G3FGA | BAG2
GA | B3ABc | dcB2
d2 | c2B2A2 | B4Bc | d4
Bc | d4cB | A4
Bc | d4Bc | d4cB | A4
GA | B3cBA | G4

